svg/core/icon/lm358icon.svg

<?xml version="1.0" encoding="UTF-8" standalone="no"?>
<svg
   version="1.2"
   baseProfile="tiny"
   id="svg2"
   x="0px"
   y="0px"
   width="32px"
   height="32px"
   xmlns="http://www.w3.org/2000/svg">
  <g
     id="icon"
     transform="matrix(0.8,0,0,0.8,0,2.8)">
    <rect
       x="3.5"
       y="26.32"
       width="3"
       height="6.6799998"
       id="rect2544"
       style="fill:#8c8c8c" />
    <rect
       x="13.5"
       y="26.32"
       width="3"
       height="6.6799998"
       id="rect2546"
       style="fill:#8c8c8c" />
    <rect
       x="23.5"
       y="26.32"
       width="3"
       height="6.6799998"
       id="rect2548"
       style="fill:#8c8c8c" />
    <rect
       x="33.5"
       y="26.32"
       width="3"
       height="6.6799998"
       id="rect2550"
       style="fill:#8c8c8c" />
    <rect
       x="3.5"
       width="3"
       height="6.6799998"
       id="rect2552"
       y="0"
       style="fill:#8c8c8c" />
    <rect
       x="13.5"
       width="3"
       height="6.6799998"
       id="rect2554"
       y="0"
       style="fill:#8c8c8c" />
    <rect
       x="23.5"
       width="3"
       height="6.6799998"
       id="rect2556"
       y="0"
       style="fill:#8c8c8c" />
    <rect
       x="33.5"
       width="3"
       height="6.6799998"
       id="rect2558"
       y="0"
       style="fill:#8c8c8c" />
    <rect
       y="3"
       width="40"
       height="8.5"
       id="rect2560"
       x="0"
       style="fill:#3d3d3d" />
    <rect
       y="21.5"
       width="40"
       height="8.5"
       id="rect2562"
       x="0" />
    <polygon
       points="8.5,4.34 8.5,3.26 6.5,2.34 3.5,2.34 3.5,4.34 8.5,4.34 "
       id="polygon2564"
       style="fill:#8c8c8c" />
    <polygon
       points="18.5,4.34 18.5,3.26 16.5,2.34 13.5,2.34 11.5,3.26 11.5,4.34 18.5,4.34 "
       id="polygon2566"
       style="fill:#8c8c8c" />
    <polygon
       points="36.5,4.34 36.5,2.34 33.5,2.34 31.5,3.26 31.5,4.34 36.5,4.34 "
       id="polygon2568"
       style="fill:#8c8c8c" />
    <polygon
       points="28.5,4.34 28.5,3.26 26.5,2.34 23.5,2.34 21.5,3.26 21.5,4.34 28.5,4.34 "
       id="polygon2570"
       style="fill:#8c8c8c" />
    <polygon
       points="3.5,28.66 3.5,30.66 6.5,30.66 8.5,29.74 8.5,28.66 3.5,28.66 "
       id="polygon2572"
       style="fill:#8c8c8c" />
    <polygon
       points="31.5,28.66 31.5,29.74 33.5,30.66 36.5,30.66 36.5,28.66 31.5,28.66 "
       id="polygon2574"
       style="fill:#8c8c8c" />
    <polygon
       points="11.5,28.66 11.5,29.74 13.5,30.66 16.5,30.66 18.5,29.74 18.5,28.66 11.5,28.66 "
       id="polygon2576"
       style="fill:#8c8c8c" />
    <polygon
       points="21.5,28.66 21.5,29.74 23.5,30.66 26.5,30.66 28.5,29.74 28.5,28.66 21.5,28.66 "
       id="polygon2578"
       style="fill:#8c8c8c" />
    <polygon
       points="40,3 39.25,5.46 39.25,27.54 40,30 40,3 "
       id="polygon2580"
       style="fill:#141414" />
    <polygon
       points="0,3 0.75,5.46 0.75,11.5 5,11.5 5,21.5 0.75,21.5 0.75,27.54 0,30 0,3 "
       id="polygon2582"
       style="fill:#1f1f1f" />
    <linearGradient
       id="SVGID_1_"
       gradientUnits="userSpaceOnUse"
       x1="2.7797999"
       y1="21.5"
       x2="2.7797999"
       y2="11.5">
      <stop
         offset="0"
         style="stop-color:#424242"
         id="stop2585" />
      <stop
         offset="1"
         style="stop-color:#000000"
         id="stop2587" />
    </linearGradient>
    <polygon
       points="0.75,11.46 0.56,13.58 0.56,19.42 0.75,21.55 5,21.55 5,11.5 0.75,11.46 "
       id="polygon2589"
       style="fill:url(#SVGID_1_)" />
    <path
       d="M 0.75,5.46 L 0.75,11.45 C 3.13,11.9 4.94,13.98 4.94,16.49 C 4.94,19 3.14,21.09 0.75,21.54 L 0.75,27.53 L 39.25,27.53 L 39.25,5.46 L 0.75,5.46 z"
       id="path2591"
       style="fill:#303030" />
    <path
       d="M 0.56,13.58 L 0.56,19.41 C 2.03,19.24 3.18,18.01 3.18,16.49 C 3.18,14.97 2.04,13.75 0.56,13.58 z"
       id="path2593"
       style="fill:#262626" />
    <linearGradient
       id="SVGID_2_"
       gradientUnits="userSpaceOnUse"
       x1="6.5"
       y1="21.4102"
       x2="6.5"
       y2="25.5303">
      <stop
         offset="0"
         style="stop-color:#121212"
         id="stop2596" />
      <stop
         offset="1"
         style="stop-color:#404040"
         id="stop2598" />
    </linearGradient>
    <path
       style="font-size:8px;font-style:normal;font-variant:normal;font-weight:bold;font-stretch:normal;fill:#e3dbdb;fill-opacity:1;stroke:none;stroke-width:1px;stroke-linecap:butt;stroke-linejoin:miter;stroke-opacity:1;font-family:OCRA"
       d="M 6.7285386,7.7814225 C 6.7818707,7.7814286 6.8298706,7.7867619 6.8725386,7.7974225 C 6.9472039,7.8187619 7.0138705,7.8560952 7.0725386,7.9094225 C 7.1632036,7.9787618 7.2245369,8.0694283 7.2565386,8.1814225 C 7.2618702,8.1974282 7.2645369,8.2160949 7.2645386,8.2374225 C 7.2698702,8.2907614 7.2725369,9.104094 7.2725386,10.677423 L 7.2725386,12.933423 L 8.4485386,12.933423 C 9.3178682,12.933423 9.7738677,12.93609 9.8165386,12.941423 C 9.827201,12.941423 9.835201,12.941423 9.8405386,12.941423 C 9.9685342,12.96809 10.072534,13.03209 10.152539,13.133423 C 10.237867,13.234756 10.280534,13.35209 10.280539,13.485423 C 10.280534,13.613423 10.237867,13.728089 10.152539,13.829423 C 10.072534,13.925422 9.9685342,13.986756 9.8405386,14.013423 C 9.8298676,14.013422 9.8218676,14.013422 9.8165386,14.013423 C 9.763201,14.018756 9.1792016,14.021422 8.0645386,14.021423 L 6.1925386,14.021423 L 6.1925386,11.077423 C 6.1925379,10.954759 6.1925379,10.789426 6.1925386,10.581423 C 6.1925379,10.368093 6.1925379,10.221426 6.1925386,10.141423 C 6.1925379,8.9307608 6.1952046,8.2907614 6.2005386,8.2214225 C 6.2058713,8.1947615 6.2138713,8.1680949 6.2245386,8.1414225 L 6.2245386,8.1334225 C 6.2245379,8.1334283 6.2245379,8.1360949 6.2245386,8.1414225 C 6.2512046,8.0774283 6.2778712,8.0294284 6.3045386,7.9974225 C 6.3258711,7.9760951 6.3418711,7.9600951 6.3525386,7.9494225 C 6.3952044,7.9067618 6.4325377,7.8747619 6.4645386,7.8534225 C 6.485871,7.8427619 6.5072043,7.8320952 6.5285386,7.8214225 C 6.5605376,7.8107619 6.5952042,7.8027619 6.6325386,7.7974225 C 6.6592041,7.7867619 6.6912041,7.7814286 6.7285386,7.7814225 M 11.911289,10.725423 L 11.911289,7.7814225 L 13.111289,7.7814225 L 13.959289,8.9894225 L 14.799289,7.7814225 L 16.007289,7.7814225 L 16.007289,10.741423 C 16.007284,10.741426 16.004617,11.682758 15.999289,13.565423 C 15.999284,13.586756 15.996617,13.605423 15.991289,13.621423 C 15.943284,13.781423 15.847284,13.896089 15.703289,13.965423 C 15.623284,14.002756 15.543284,14.021422 15.463289,14.021423 C 15.399284,14.021422 15.337951,14.010756 15.279289,13.989423 C 15.252618,13.978756 15.231285,13.968089 15.215289,13.957423 C 15.193951,13.946756 15.172618,13.933422 15.151289,13.917423 C 15.135285,13.906756 15.116618,13.890756 15.095289,13.869423 C 15.020618,13.800089 14.967285,13.714756 14.935289,13.613423 C 14.929952,13.597423 14.927285,13.578756 14.927289,13.557423 C 14.921952,13.50409 14.919285,12.741424 14.919289,11.269423 L 14.919289,9.5094225 L 14.495289,10.109423 L 14.495289,10.173423 C 14.495285,10.280093 14.489952,10.352093 14.479289,10.389423 C 14.473952,10.416093 14.465952,10.442759 14.455289,10.469423 C 14.444619,10.490759 14.433952,10.512093 14.423289,10.533423 C 14.380619,10.602759 14.321952,10.661426 14.247289,10.709423 C 14.161952,10.768092 14.063286,10.797426 13.951289,10.797423 C 13.929953,10.797426 13.908619,10.797426 13.887289,10.797423 C 13.812619,10.786759 13.743286,10.762759 13.679289,10.725423 C 13.567286,10.661426 13.489953,10.573426 13.447289,10.461423 C 13.431286,10.408093 13.42062,10.362759 13.415289,10.325423 C 13.415286,10.304093 13.415286,10.258759 13.415289,10.189423 L 13.407289,10.109423 L 12.999289,9.5174225 L 12.991289,11.277423 C 12.991287,12.76009 12.98862,13.522756 12.983289,13.565423 C 12.983287,13.586756 12.98062,13.605423 12.975289,13.621423 C 12.927287,13.781423 12.831287,13.896089 12.687289,13.965423 C 12.612621,14.002756 12.535287,14.021422 12.455289,14.021423 C 12.385954,14.021422 12.324621,14.010756 12.271289,13.989423 C 12.207288,13.962756 12.156621,13.936089 12.119289,13.909423 C 12.103288,13.893423 12.087288,13.877423 12.071289,13.861423 C 12.049954,13.834756 12.033954,13.816089 12.023289,13.805423 C 11.991288,13.768089 11.964621,13.722756 11.943289,13.669423 C 11.932621,13.642756 11.924621,13.613423 11.919289,13.581423 C 11.913955,13.51209 11.911288,12.87209 11.911289,11.661423 C 11.911288,11.581425 11.911288,11.437425 11.911289,11.229423 C 11.911288,11.021425 11.911288,10.853426 11.911289,10.725423 M 13.775289,17.781423 C 13.849953,17.781429 13.951286,17.781429 14.079289,17.781423 C 14.207286,17.781429 14.300619,17.781429 14.359289,17.781423 C 14.887285,17.781429 15.177951,17.786762 15.231289,17.797423 C 15.241951,17.797429 15.252618,17.800095 15.263289,17.805423 C 15.268618,17.805429 15.284618,17.808095 15.311289,17.813423 C 15.492618,17.861429 15.644618,17.954762 15.767289,18.093423 C 15.895284,18.232095 15.972617,18.397428 15.999289,18.589423 C 16.004617,18.632094 16.007284,18.909427 16.007289,19.421423 C 16.007284,19.93876 16.004617,20.224093 15.999289,20.277423 C 15.972617,20.506759 15.892617,20.714759 15.759289,20.901423 C 15.828617,21.002759 15.884617,21.109425 15.927289,21.221423 C 15.953951,21.290758 15.975284,21.370758 15.991289,21.461423 L 16.007289,21.541423 L 16.007289,23.205423 L 15.991289,23.277423 C 15.953951,23.43209 15.889951,23.565423 15.799289,23.677423 C 15.639284,23.874756 15.433951,23.986756 15.183289,24.013423 C 15.151285,24.018756 14.873952,24.021422 14.351289,24.021423 C 14.191286,24.021422 13.991286,24.021422 13.751289,24.021423 L 12.359289,24.021423 L 12.303289,23.997423 C 12.164621,23.954756 12.063288,23.885423 11.999289,23.789423 C 11.940621,23.688089 11.911288,23.586756 11.911289,23.485423 C 11.911288,23.378756 11.940621,23.274756 11.999289,23.173423 C 12.063288,23.07209 12.164621,23.00009 12.303289,22.957423 L 12.359289,22.941423 L 14.919289,22.933423 L 14.919289,22.349423 C 14.919285,21.864091 14.916618,21.613425 14.911289,21.597423 L 14.895289,21.573423 C 14.873952,21.525425 14.839285,21.490758 14.791289,21.469423 L 14.767289,21.453423 C 14.735285,21.448092 14.463285,21.445425 13.951289,21.445423 C 13.41262,21.440092 13.119287,21.434758 13.071289,21.429423 C 13.04462,21.424092 13.017954,21.413425 12.991289,21.397423 C 12.985954,21.397425 12.98062,21.397425 12.975289,21.397423 C 12.969954,21.392092 12.967287,21.389425 12.967289,21.389423 C 12.823287,21.320092 12.727287,21.208092 12.679289,21.053423 C 12.668621,21.016092 12.663287,20.978759 12.663289,20.941423 C 12.663287,20.925425 12.663287,20.912092 12.663289,20.901423 C 12.663287,20.842759 12.665954,20.802759 12.671289,20.781423 C 12.676621,20.770759 12.679287,20.760092 12.679289,20.749423 C 12.727287,20.594759 12.823287,20.482759 12.967289,20.413423 L 12.991289,20.405423 C 13.017954,20.389426 13.04462,20.378759 13.071289,20.373423 C 13.119287,20.362759 13.41262,20.357426 13.951289,20.357423 L 14.735289,20.357423 L 14.751289,20.349423 C 14.831285,20.322759 14.884618,20.269426 14.911289,20.189423 C 14.916618,20.16276 14.919285,19.917426 14.919289,19.453423 L 14.919289,18.869423 L 12.359289,18.869423 L 12.303289,18.845423 C 12.137954,18.797428 12.023288,18.698761 11.959289,18.549423 C 11.927288,18.480095 11.911288,18.405428 11.911289,18.325423 C 11.911288,18.245428 11.927288,18.170762 11.959289,18.101423 C 12.033954,17.925428 12.169954,17.821429 12.367289,17.789423 C 12.388621,17.784095 12.857954,17.781429 13.775289,17.781423 M 18.382039,21.445423 L 18.382039,17.781423 L 19.878039,17.781423 C 20.752701,17.781429 21.211368,17.784095 21.254039,17.789423 C 21.264701,17.789429 21.272701,17.789429 21.278039,17.789423 C 21.406034,17.816095 21.510034,17.880095 21.590039,17.981423 C 21.675367,18.082762 21.718034,18.200095 21.718039,18.333423 C 21.718034,18.461428 21.675367,18.576094 21.590039,18.677423 C 21.510034,18.773428 21.406034,18.834761 21.278039,18.861423 C 21.246034,18.866761 20.907368,18.869428 20.262039,18.869423 L 19.462039,18.869423 L 19.462039,20.357423 L 20.078039,20.357423 L 20.134039,20.357423 C 20.651368,20.357426 20.950035,20.368093 21.030039,20.389423 C 21.216701,20.437426 21.371368,20.533426 21.494039,20.677423 C 21.622034,20.821426 21.696701,20.989425 21.718039,21.181423 C 21.723367,21.213425 21.726034,21.405425 21.726039,21.757423 C 21.726034,21.885425 21.726034,22.040091 21.726039,22.221423 L 21.726039,23.213423 L 21.710039,23.277423 C 21.672701,23.43209 21.608701,23.565423 21.518039,23.677423 C 21.384701,23.837423 21.222034,23.941422 21.030039,23.989423 C 20.950035,24.010756 20.622035,24.021422 20.046039,24.021423 L 19.934039,24.021423 C 19.310036,24.021422 18.97137,24.018756 18.918039,24.013423 C 18.82737,24.002756 18.744703,23.984089 18.670039,23.957423 C 18.648704,23.946756 18.520704,23.893423 18.286039,23.797423 C 18.056704,23.701423 17.923371,23.642756 17.886039,23.621423 C 17.795371,23.568089 17.726038,23.48809 17.678039,23.381423 C 17.646038,23.31209 17.630038,23.237423 17.630039,23.157423 C 17.630038,23.07209 17.648705,22.99209 17.686039,22.917423 C 17.728705,22.821424 17.792704,22.746757 17.878039,22.693423 C 17.968704,22.64009 18.064704,22.613424 18.166039,22.613423 C 18.224704,22.613424 18.280704,22.62409 18.334039,22.645423 C 18.360704,22.650757 18.48337,22.698757 18.702039,22.789423 C 18.910037,22.88009 19.014037,22.925423 19.014039,22.925423 C 19.040703,22.930757 19.336703,22.933423 19.902039,22.933423 L 20.638039,22.933423 L 20.638039,21.445423 L 18.382039,21.445423 M 25.084789,17.781423 C 25.138119,17.781429 25.244786,17.781429 25.404789,17.781423 C 25.938119,17.786762 26.228785,17.792095 26.276789,17.797423 C 26.303452,17.802762 26.330118,17.813429 26.356789,17.829423 C 26.362118,17.829429 26.367452,17.832095 26.372789,17.837423 C 26.378118,17.837429 26.380785,17.837429 26.380789,17.837423 C 26.492785,17.890762 26.575451,17.973428 26.628789,18.085423 L 26.636789,18.101423 C 26.652785,18.128095 26.663451,18.160095 26.668789,18.197423 C 26.679451,18.245428 26.684785,18.642761 26.684789,19.389423 L 26.684789,20.373423 C 26.706118,20.378759 26.727451,20.384093 26.748789,20.389423 C 26.914118,20.432093 27.058118,20.514759 27.180789,20.637423 C 27.303451,20.760092 27.383451,20.906759 27.420789,21.077423 C 27.436784,21.146759 27.444784,21.346758 27.444789,21.677423 C 27.444784,21.768091 27.444784,21.949424 27.444789,22.221423 L 27.444789,23.213423 L 27.428789,23.277423 C 27.391451,23.43209 27.327451,23.565423 27.236789,23.677423 C 27.076784,23.874756 26.871451,23.986756 26.620789,24.013423 C 26.588785,24.018756 26.359452,24.021422 25.932789,24.021423 C 25.778119,24.021422 25.588786,24.021422 25.364789,24.021423 L 24.156789,24.021423 L 24.092789,24.005423 C 23.868787,23.952089 23.690121,23.842756 23.556789,23.677423 C 23.471454,23.576089 23.410121,23.458756 23.372789,23.325423 C 23.356788,23.250756 23.348788,22.917423 23.348789,22.325423 L 23.348789,22.189423 L 23.348789,22.053423 C 23.348788,21.461425 23.356788,21.128092 23.372789,21.053423 C 23.420788,20.882759 23.508788,20.736092 23.636789,20.613423 C 23.770121,20.485426 23.924787,20.405426 24.100789,20.373423 L 24.100789,19.405423 L 24.100789,19.117423 C 24.100787,18.546761 24.106121,18.237428 24.116789,18.189423 C 24.116787,18.184095 24.116787,18.178762 24.116789,18.173423 C 24.122121,18.162762 24.127454,18.152095 24.132789,18.141423 C 24.159454,18.077428 24.18612,18.029428 24.212789,17.997423 C 24.228787,17.976095 24.244787,17.960095 24.260789,17.949423 C 24.308787,17.906762 24.34612,17.874762 24.372789,17.853423 C 24.39412,17.842762 24.415454,17.832095 24.436789,17.821423 C 24.468787,17.810762 24.503453,17.802762 24.540789,17.797423 C 24.567453,17.786762 24.748787,17.781429 25.084789,17.781423 M 25.604789,20.357423 L 25.604789,18.869423 L 25.180789,18.869423 L 25.180789,20.357423 L 25.604789,20.357423 M 26.356789,22.933423 L 26.356789,21.445423 L 24.428789,21.445423 L 24.428789,22.933423 L 26.356789,22.933423"
       id="text2434" />
    <circle
       cx="6.5"
       cy="23.469999"
       r="2.0599999"
       id="circle2600"
       style="fill:url(#SVGID_2_)" />
  </g>
</svg>

<?xml version="1.0" encoding="UTF-8"?>
<svg width="32px" height="32px" baseProfile="tiny" version="1.2" xmlns="http://www.w3.org/2000/svg">
 <g id="icon" transform="matrix(.8 0 0 .8 0 2.8)">
  <g fill="#8c8c8c">
   <rect x="3.5" y="26.3" width="3" height="6.68"/>
   <rect x="13.5" y="26.3" width="3" height="6.68"/>
   <rect x="23.5" y="26.3" width="3" height="6.68"/>
   <rect x="33.5" y="26.3" width="3" height="6.68"/>
   <rect x="3.5" width="3" height="6.68"/>
   <rect x="13.5" width="3" height="6.68"/>
   <rect x="23.5" width="3" height="6.68"/>
   <rect x="33.5" width="3" height="6.68"/>
  </g>
  <rect y="3" width="40" height="8.5" fill="#3d3d3d"/>
  <rect y="21.5" width="40" height="8.5"/>
  <g fill="#8c8c8c">
   <polygon points="8.5 4.34 8.5 3.26 6.5 2.34 3.5 2.34 3.5 4.34"/>
   <polygon points="18.5 4.34 18.5 3.26 16.5 2.34 13.5 2.34 11.5 3.26 11.5 4.34"/>
   <polygon points="36.5 4.34 36.5 2.34 33.5 2.34 31.5 3.26 31.5 4.34"/>
   <polygon points="28.5 4.34 28.5 3.26 26.5 2.34 23.5 2.34 21.5 3.26 21.5 4.34"/>
   <polygon points="3.5 28.7 3.5 30.7 6.5 30.7 8.5 29.7 8.5 28.7"/>
   <polygon points="31.5 28.7 31.5 29.7 33.5 30.7 36.5 30.7 36.5 28.7"/>
   <polygon points="11.5 28.7 11.5 29.7 13.5 30.7 16.5 30.7 18.5 29.7 18.5 28.7"/>
   <polygon points="21.5 28.7 21.5 29.7 23.5 30.7 26.5 30.7 28.5 29.7 28.5 28.7"/>
  </g>
  <polygon points="40 3 39.2 5.46 39.2 27.5 40 30" fill="#141414"/>
  <polygon points="0 3 0.75 5.46 0.75 11.5 5 11.5 5 21.5 0.75 21.5 0.75 27.5 0 30" fill="#1f1f1f"/>
  <linearGradient id="SVGID_1_" x1="2.78" x2="2.78" y1="21.5" y2="11.5" gradientUnits="userSpaceOnUse">
   <stop stop-color="#424242" offset="0"/>
   <stop offset="1"/>
  </linearGradient>
  <polygon points="0.75 11.5 0.56 13.6 0.56 19.4 0.75 21.6 5 21.6 5 11.5" fill="url(#SVGID_1_)"/>
  <path d="m0.75 5.46v5.99c2.38 0.45 4.19 2.53 4.19 5.04s-1.8 4.6-4.19 5.05v5.99h38.5v-22.1h-38.5z" fill="#303030"/>
  <path d="m0.56 13.6v5.83c1.47-0.17 2.62-1.4 2.62-2.92s-1.14-2.74-2.62-2.91z" fill="#262626"/>
  <linearGradient id="SVGID_2_" x1="6.5" x2="6.5" y1="21.4" y2="25.5" gradientUnits="userSpaceOnUse">
   <stop stop-color="#121212" offset="0"/>
   <stop stop-color="#404040" offset="1"/>
  </linearGradient>
 <text x="6" y="18" fill="#e3dbdb" font-family="'OCRA'" font-size="9">LM358</text>
  <circle cx="6.5" cy="23.5" r="2.06" fill="url(#SVGID_2_)"/>
 </g>
</svg>
